receipt-clock.svg

<svg fill="currentColor" viewBox="0 0 24 24"><path d="m3 22 1.5-1.5L6 22l1.5-1.5L9 22l1.58-1.58c.14.19.3.36.47.53A7.001 7.001 0 0 0 21 11.1V2l-1.5 1.5L18 2l-1.5 1.5L15 2l-1.5 1.5L12 2l-1.5 1.5L9 2 7.5 3.5 6 2 4.5 3.5 3 2zm17.85-6c0 .64-.12 1.27-.35 1.86-.26.58-.62 1.14-1.07 1.57-.43.45-.99.81-1.57 1.07-.59.23-1.22.35-1.86.35-2.68 0-4.85-2.17-4.85-4.85 0-1.29.51-2.5 1.42-3.43.93-.91 2.14-1.42 3.43-1.42 2.67 0 4.85 2.17 4.85 4.85m-5.85.69V13h1.5v2.82l2.44 1.41-.75 1.3z"/></svg>

<svg  viewBox="0 0 24 24" fill="currentColor"><path  d="M3 22L4.5 20.5L6 22L7.5 20.5L9 22L10.58 20.42C10.72 20.61 10.88 20.78 11.05 20.95C12.36 22.26 14.14 23 16 23C19.86 23 23 19.87 23 16C23 14.17 22.28 12.41 21 11.1V2L19.5 3.5L18 2L16.5 3.5L15 2L13.5 3.5L12 2L10.5 3.5L9 2L7.5 3.5L6 2L4.5 3.5L3 2V22M20.85 16C20.85 16.64 20.73 17.27 20.5 17.86C20.24 18.44 19.88 19 19.43 19.43C19 19.88 18.44 20.24 17.86 20.5C17.27 20.73 16.64 20.85 16 20.85C13.32 20.85 11.15 18.68 11.15 16C11.15 14.71 11.66 13.5 12.57 12.57C13.5 11.66 14.71 11.15 16 11.15C18.67 11.15 20.85 13.32 20.85 16M15 16.69V13H16.5V15.82L18.94 17.23L18.19 18.53L15 16.69Z"/></svg>
